X: 2078
T: Çalın Davulları Çaydan Aşağı
C: (Anonim)
O: Turkey
F: http://compmusic.upf.edu/node/140
N: evic--turku--curcuna--calin_davullari--rumeli
N: makam= evic
N: form= turku
N: usul= curcuna = 10/8
M: 10/8
L: 1/16
K: C _1/4B ^f ^c 
Q: 1/4=168
%%MIDI tuningsystem comma53
d4 d2d4e2 ^3/4f2g2 e2d2  | e2d/c/d c2{d}c2 B2cB2AAB cdcB  | 
w:  ARANAĞME  |   | 
A4 ABc4d2 B2B3/2=c/ B2A2  | A3/2=c/BA GFG2 F2F4F6  | \
w:   |   | 
D4 F2F4D4F6  | 
w:   | 
D4 F2F4D4F3ABc  | d4 d2d4e2 ^3/4f2g2 e2d2  | \
w:   |  ARANAĞME  | 
e2d/c/d c2{d}c2 B2cB2AAB cdcB  | 
w:   | 
A4 ABc4d2 B2B3/2=c/ B2A2  | A3/2=c/BA GFG2 F2F4F6  | \
w:   |   | 
D4 F2F4D4F6  | 
w:   | 
D4 F2F4D4F6  | z4 f2f4f4a4f2  | a2fg ^eg3 f2f4f3.g.e.f  | 
w:   |  Ça lın  da vul  |  la *  *  *  *  *  *  rı  SAZ  | 
g4 g6f4^e6  | ^e2de dc=Bd2cc4cd cBAB  | \
w:  *  çay dan_ a  |  şa *  *  *  *  *  *  *  ğı  SAZ  | 
cde2 e4 d2e2 d2c6  | 
w:  *  *  *  am *  man    | 
d3B BAB4B4B3ABc  | d4 d2d4e2 ^3/4f2g2 e2d2  | \
w:  *  *  *  *  *  *  *  SAZ  |  *  Me za rı *  mı   | 
e2d/c/d c2c2 B2cB2AAB cdcB  | 
w:  ka *  *  *  zın  bre  *  dost *  *  lar  SAZ  | 
A4 ABc4d2 B2B3/2=c/ B2A2  | A3/2=c/BA GFG2 F2F4F6  | \
w:  *  bel *  *  den_ *  a  |  şa *  *  *  *  *  ğı    | 
D4 F2F4D4F6  | 
w:  SAZ  | 
D4 F2F4D4F3ABc  | d4 d2d4e2 ^3/4f2g2 e2d2  | \
w:   |  *  Me za rı *  mı   | 
e2d/c/d c2c2 B2cB2AAB cdcB  | 
w:  ka *  *  *  zın  bre  *  dost *  *  lar  SAZ  | 
A4 ABc4d2 B2B3/2=c/ B2A2  | A3/2=c/BA GFG2 F2F4F6  | \
w:  *  bel *  *  den_ *  a  |  şa *  *  *  *  *  ğı    | 
D4 F2F4D4F6  | 
w:  SAZ  | 
D4 F2F4D4F3cd^e  | f4 f2f4f4a4f2  | a2fg ^eg3 f2f8ef  | 
w:   |  *  Ko yun  su la  |  rı *  *  *  *  *  mı  SAZ  | 
g4 g6f4^e6  | ^e2de dc=Bd2cc4c6  | cde2 e4 d2e2 d2c6  | 
w:  *  ka zan  do  |  lun *  *  *  *  *  *  *  ca ya   |  SAZ *  *  am *  man    | 
d3B BAB4B6 C/D/E/F/G/A/B/c/  | d4 d2d4ee ^3/4f2g2 e2d2  | 
w:  *  *  *  *  *  *  SAZ  |  *  A man  ö *  *  lüm   | 
e2d2 cdc2 B2cB/A/ BAAB cdcB  | A4 ABc4d2 B2B3/2=c/ B2A2  | 
w:  za *  *  *  lim  *  ö *  *  *  *  lüm  SAZ  |  *  üç  *  *  gün  *  a  | 
A3/2=c/BA GFG2 F2F8-F2  | D4 F2F4D4F6  | \
w:  ra  *  *  *  *  *  *  *  ver    |  SAZ  | 
D4 F2F4D4F3ABc  | 
w:   | 
d4 d2d4ee ^3/4f2g2 e2d2  | e2d2 cdc2 B2cB/A/ BAAB cdcB  | 
w:  *  Al  ba şım *  *  dan   |  bu  *  *  *  sev *  dâ *  *  *  *  yı  SAZ  | 
A4 ABc4d2 B2B3/2=c/ B2A2  | A3/2=c/BA GFG2 F2F8-F2  | \
w:  *  gö *  *  tür  *  yâ  |  re  *  *  *  *  *  *  *  ver    | 
D4 F2F4D4F6  | 
w:  SAZ  | 
D4 F2F4D4F6  | d4 d2d4e2 ^3/4f2g2 e2d2  | \
w:   |  ARANAĞME  | 
e2d/c/d c2{d}c2 B2cB2AAB cdcB  | 
w:   | 
A4 ABc4d2 B2B3/2=c/ B2A2  | A3/2=c/BA GFG2 F2F4F6  | \
w:   |   | 
D4 F2F4D4F6  | 
w:   | 
D4 F2F4D4F3ABc  | d4 d2d4e2 ^3/4f2g2 e2d2  | \
w:   |  ARANAĞME  | 
e2d/c/d c2{d}c2 B2cB2AAB cdcB  | 
w:   | 
A4 ABc4d2 B2B3/2=c/ B2A2  | A3/2=c/BA GFG2 F2F4F6  | \
w:   |   | 
D4 F2F4D4F6  | 
w:   | 
D4 F2F4D4F6  | z4 f2f4f4a4f2  | a2fg ^eg3 f2f4f3.g.e.f  | 
w:   |  Ça lın  da vul  |  la *  *  *  *  *  *  rı  SAZ  | 
g4 g6f4^e6  | ^e2de dc=Bd2cc4cd cBAB  | \
w:  *  çay dan_ a  |  şa *  *  *  *  *  *  *  ğı  SAZ  | 
cde2 e4 d2e2 d2c6  | 
w:  *  *  *  am *  man    | 
d3B BAB4B4B3ABc  | d4 d2d4e2 ^3/4f2g2 e2d2  | \
w:  *  *  *  *  *  *  *  SAZ  |  *  Me za rı *  mı   | 
e2d/c/d c2c2 B2cB2AAB cdcB  | 
w:  ka *  *  *  zın  bre  *  dost *  *  lar  SAZ  | 
A4 ABc4d2 B2B3/2=c/ B2A2  | A3/2=c/BA GFG2 F2F4F6  | \
w:  *  bel *  *  den_ *  a  |  şa *  *  *  *  *  ğı    | 
D4 F2F4D4F6  | 
w:  SAZ  | 
D4 F2F4D4F3ABc  | d4 d2d4e2 ^3/4f2g2 e2d2  | \
w:   |  *  Me za rı *  mı   | 
e2d/c/d c2c2 B2cB2AAB cdcB  | 
w:  ka *  *  *  zın  bre  *  dost *  *  lar  SAZ  | 
A4 ABc4d2 B2B3/2=c/ B2A2  | A3/2=c/BA GFG2 F2F4F6  | \
w:  *  bel *  *  den_ *  a  |  şa *  *  *  *  *  ğı    | 
D4 F2F4D4F6  | 
w:  SAZ  | 
D4 F2F4D4F3cd^e  | f4 f2f4f4a4f2  | a2fg ^eg3 f2f8ef  | 
w:   |  *  Ko yun  su la  |  rı *  *  *  *  *  mı  SAZ  | 
g4 g6f4^e6  | ^e2de dc=Bd2cc4c6  | cde2 e4 d2e2 d2c6  | 
w:  *  ka zan  do  |  lun *  *  *  *  *  *  *  ca ya   |  SAZ *  *  am *  man    | 
d3B BAB4B6 C/D/E/F/G/A/B/c/  | d4 d2d4ee ^3/4f2g2 e2d2  | 
w:  *  *  *  *  *  *  SAZ  |  *  A man  ö *  *  lüm   | 
e2d2 cdc2 B2cB/A/ BAAB cdcB  | A4 ABc4d2 B2B3/2=c/ B2A2  | 
w:  za *  *  *  lim  *  ö *  *  *  *  lüm  SAZ  |  *  üç  *  *  gün  *  a  | 
A3/2=c/BA GFG2 F2F8-F2  | D4 F2F4D4F6  | \
w:  ra  *  *  *  *  *  *  *  ver    |  SAZ  | 
D4 F2F4D4F3ABc  | 
w:   | 
d4 d2d4ee ^3/4f2g2 e2d2  | e2d2 cdc2 B2cB/A/ BAAB cdcB  | 
w:  *  Al  ba şım *  *  dan   |  bu  *  *  *  sev *  dâ *  *  *  *  yı  SAZ  | 
A4 ABc4d2 B2B3/2=c/ B2A2  | A3/2=c/BA GFG2 F2F8-F2  | \
w:  *  gö *  *  tür  *  yâ  |  re  *  *  *  *  *  *  *  ver    | 
D4 F2F4D4F6  | 
w:  SAZ  | 
D4 F2F4D4F6  | |


